packages/icons/src/SVG/grid.svg

<!-- Generated by IcoMoon.io -->
<svg version="1.1" xmlns="http://www.w3.org/2000/svg" width="12" height="12" viewBox="0 0 12 12">
<title>grid</title>
<path d="M0 5h5v-5h-5v5zM1 1h3v3h-3v-3z"></path>
<path d="M7 5h5v-5h-5v5zM8 1h3v3h-3v-3z"></path>
<path d="M7 7h5v5h-5v-5zM11 8h-3v3h3v-3z"></path>
<path d="M0 12h5v-5h-5v5zM1 8h3v3h-3v-3z"></path>
</svg>

<svg width="12" height="12" viewBox="0 0 12 12" >
<path fill-rule="evenodd" clip-rule="evenodd" d="M0 5V0H5V5H0ZM1 1H4V4H1V1Z" />
<path fill-rule="evenodd" clip-rule="evenodd" d="M7 5V0H12V5H7ZM8 1H11V4H8V1Z" />
<path fill-rule="evenodd" clip-rule="evenodd" d="M7 7V12H12V7H7ZM11 8H8V11H11V8Z" />
<path fill-rule="evenodd" clip-rule="evenodd" d="M0 12V7H5V12H0ZM1 8H4V11H1V8Z" />
</svg>
